!!!COM: Franz Schubert
!!!CNT: Deutsch
!!!TXO: Deutsch
!!!OTL: "Gretchen am Spinnrade"
!!!LYR: Johann Wolfgang von Goethe
!!!OPS: Op. 2
!!!ENC: Ben Fuhrman
!!!YOR: Schubert Lieder - Dietrich Fischer-Dieskau, and Elmar Budde, eds.
!!!YOR: New York: C. F. Peters, Vol. 2
!!!ODT: 1814/
!!NB: Only vocal melody encoded.
!!NB: First instance of melodic material only encoded.
!!NB: Original Key: D minor
**kern
*clef G2
*k[f#c#]
*M6/8
!!created: 07/31/06 9:05
!!proofed and posted: 07/31/06 9:05
!!edit time: 45 minutes
=2
4r
8r
8r
{8d
8e
=3
[4.f#
8f#]
8g
8f#
=4
[4.f#
8f#]
8r
8f#
=5
[4.b
4b]
8f#
=6
4.f#}
8r
8r
{8f#
=7
4.a
4e
8a
=8
[4.g#
8g#]
8a
8b
=9
4.b
4a
8a
=10
[4.dd
4dd]
8g#
=11
4.a}
4r
8r
!! rest to measure 13
=13
4r
8r
8r
{8d
8e
=14
[4.f#
8f#]
8g
8f#
=15
4.f#}
8r
8r
{8a
=16
[4.g#
8g#]
8f#
8e#
=17
4.f#}
8r
8r
{8a
=18
[4.f#
4f#]
8d#
=19
[4.e
4e]
16g#
16f#
=20
[4.d#
4d#]
16f#
16d#
=21
4.c#}
8r
8r
{8cc#
=22
[4.cc#
8cc#]
8ddn
8cc#
=23
[4.cc#
8cc#]
8r
8cc#
=24
[4.cc#
8cc#]
8dd
8cc#
=25
[4.cc#
8cc#]
8r
8cc#
=26
[4.dd
8dd]
8ee
8dd
=27
[4.dd
8dd]
8r
8dd
=28
[4.b-
8b-]
8a
8g
=29
4d}
8r
4r
8r
!! rest to measure 31
=31
4r
8r
8r
{8d
8e
=32
[4.f#
8f#]
8g
8f#
=33
[4.f#
8f#]
8r
8f#
=34
[4.b
4b]
8f#
=35
4.f#}
8r
8r
{8f#
=36
4.a
4e
8a
=37
[4.g#
8g#]
8a
8b
=38
4.b
4a
8a
=39
[4.dd
4dd]
8g#
=40
4.a}
4r
8r
!! rest to measure 42
=42
4r
8r
8r
{8d
8e
=43
[4.f#
8f#]
8g
8f#
=44
4.a
4f#
8f#
=45
[4.g#
8g#]
8f#
8e#
=46
4.f#}
8r
8r
{8f#
=47
[4.f#
8f#]
8gn
8f#
=48
4.a
4.f#
=49
[4.g#
8g#]
8f#
8e#
=50
4.f#}
8r
8r
{8f#
=51
[4.f#
8f#]
8g
8a
=52
[4.a
8a]
8r
8a
=53
[4.e
8e]
8f#
8g
=54
4.f#
8r
8d
8e
=55
[4.f#
8f#]
8g
8a
=56
4a
8g
8r
8g
8g
=57
[4.g
8g]
8a
8b-
=58
4.a}
8r
8r
{8a
=59
[4.a
8a]
8bn
8ccn
=60
4.b
4.g
=61
[4.dd
8dd]
8cc#
8ccn
=62
4.b}
4r
8r
=63
4r
8r
{4.b
=64
4dd
8b
4.b}
=65
4r
8r
{4.b
=66
2.dd}
=67
4r
8r
{4.b
=68
2.ee}
!! rest to measure 73
=73
4r
8r
8r
{8d
8e
=74
[4.f#
8f#]
8g
8f#
=75
4.f#}
8r
8r
{8f#
=76
[4.b
4b]
8f#
=77
[4.f#
8f#]
8r
8f#
=78
4.a
4e
8a
=79
[4.g#
8g#]
8a
8b
=80
4.b
4a
8a
=81
[4.dd
4dd]
8g#
=82
4a}
8r
4r
8r
!! rest to measure 84
=84
4r
8r
4r
{8f#
=85
[4.g
8g]
8f#
8g
=86
4.a
4g
8r
=87
[4.a
8a]
8b-
8a
=88
4.a}
8r
8r
{8a
=89
[4.bn
8bn]
8a#
8bn
=90
4ccn
8b}
8r
8r
{8b
=91
[4.cc#
8cc#]
8dd
8cc#
=92
4.cc#}
8r
8r
{8cc#
=93
[4.dd#
8dd#]
8cc#
8b#
=94
[4.cc#
8cc#]
8r
8cc#
=95
[4.dd#
8dd#]
8cc#
8b#
=96
4.cc#}
8r
8r
{8cc#
=97
[4.cc#
8cc#]
8b
8a#
=98
4cc#
8b}
8r
8r
{8b
=99
[4.cc#
8cc#]
8b
8a#
=100
4.b}
8r
8r
{8b
=101
[4.b
8b]
8cc#
8dd
=102
4.dd
8b
8r
8b
=103
[4.b
8b]
8cc#
8dd
=104
4.dd}
8r
8r
{8b
=105
[4.b
8b]
8cc#
8dd
=106
4.dd
8b
8r
8b
=107
[4.ff#
4ff#]
8cc#
=108
4.dd}
8r
8r
{8b
=109
[4.b
8b]
8cc#
8dd
=110
4.dd
8b
8r
8b
=111
[4.ff#
4ff#]
8a#
=112
4.b}
4r
8r
!! rest to measure 114
=114
4r
8r
8r
{8d
8e
=115
[4.f#
8f#]
8g
8f#
=116
4.f#}
8r
8r
{8f#
=117
[4.b
4b]
8f#
=118
2.f#}
==
*-
